remix/Map/compass-3-fill.svg

<svg viewBox="0 0 24 24" fill="currentColor" xmlns="http://www.w3.org/2000/svg"><path d="M12 22C6.47715 22 2 17.5228 2 12C2 6.47715 6.47715 2 12 2C17.5228 2 22 6.47715 22 12C22 17.5228 17.5228 22 12 22ZM16.5 7.5L10 10L7.5 16.5L14 14L16.5 7.5ZM12 13C11.4477 13 11 12.5523 11 12C11 11.4477 11.4477 11 12 11C12.5523 11 13 11.4477 13 12C13 12.5523 12.5523 13 12 13Z"/></svg>

<svg viewBox="0 0 24 24" xmlns="http://www.w3.org/2000/svg"><path fill="none" d="M0 0h24v24H0Z"/><path d="M12 22C6.477 22 2 17.523 2 12 2 6.477 6.477 2 12 2c5.523 0 10 4.477 10 10s-4.477 10-10 10Zm4.5-14.5L10 10l-2.5 6.5L14 14l2.5-6.5ZM12 13v0c-.56 0-1-.45-1-1 0-.56.44-1 1-1v0c.55 0 1 .44 1 1 0 .55-.45 1-1 1Z"/></svg>
